public/static/icons/editor/inline_strikethrough.svg

<svg height="24" viewBox="0 0 24 24" width="24" xmlns="http://www.w3.org/2000/svg"><path d="m5.64666667 9.66666667c-.34-.63333334-.51333334-1.37333334-.51333334-2.22 0-.81333334.17333334-1.55333334.52666667-2.22666667s.84666667-1.24666667 1.48666667-1.72 1.39333333-.84 2.27333333-1.1 1.84-.39333333 2.8933333-.39333333c1.08 0 2.06.14666666 2.94.44666666s1.6333334.71333334 2.26 1.25333334c.6266667.53333333 1.1066667 1.16666666 1.4466667 1.90666666.34.73333334.5066667 1.54.5066667 2.41333334h-4.0133334c0-.40666667-.0666666-.78666667-.1933333-1.13333334-.1266667-.35333333-.3266667-.65333333-.5933333-.9-.2666667-.24666666-.6-.44666666-1-.58-.4-.14-.8733334-.20666666-1.42-.20666666-.5266667 0-.98.06-1.3733334.17333333-.3866666.11333333-.7066666.27333333-.95999997.48-.25333333.20666667-.44666666.44666667-.57333333.72s-.19333333.57333333-.19333333.88c0 .64.32666666 1.18.98000003 1.61333333.5.32666667 1.02.64 1.8733333.93333337h-6.14666667c-.06666666-.11333337-.14-.22000003-.20666666-.34000003zm18.35333333 4.34000003v-2.6666667h-24v2.6666667h12.8333333c.24.0933333.5333334.1866666.7333334.2733333.4933333.22.88.4533333 1.16.68.28.2333333.4666666.4866667.5666666.7533333.1.2733334.1466667.58.1466667.9133334 0 .3133333-.06.6066666-.18.8733333-.12.2733333-.3066667.5066667-.5533333.7-.2466667.1933333-.5666667.3466667-.9466667.46-.3866667.1133333-.8333333.1666667-1.3533333.1666667-.58 0-1.1066667-.06-1.58-.1733334-.4733334-.1133333-.87333337-.3-1.2066667-.5533333s-.59333333-.5866667-.78-.9933333c-.18666667-.4066667-.34-1.02-.34-1.6066667h-3.96666667c0 .7333333.10666667 1.5066667.31333334 2.1066667.20666666.6.5 1.14.86666666 1.6133333.36666667.4733333.80666667.88 1.30666667 1.2266667.5.3466666 1.04.64 1.62666667.8666666.58666666.2333334 1.19333333.4066667 1.84000003.5133334.64.1133333 1.2866666.1666666 1.9266666.1666666 1.0666667 0 2.04-.12 2.9066667-.3666666.8666667-.2466667 1.6133333-.6 2.2266667-1.0533334.6133333-.46 1.0866666-1.02 1.4266666-1.6933333s.5-1.4333333.5-2.2866667c0-.8-.14-1.52-.4133333-2.1533333-.0666667-.1533333-.14-.3-.2266667-.4466667h5.1666667z" fill-rule="evenodd"/></svg>

<svg xmlns="http://www.w3.org/2000/svg" width="24" height="24" viewBox="0 0 24 24">
  <path fill-rule="evenodd" d="M5.64666667,9.66666667 C5.30666667,9.03333333 5.13333333,8.29333333 5.13333333,7.44666667 C5.13333333,6.63333333 5.30666667,5.89333333 5.66,5.22 C6.01333333,4.54666667 6.50666667,3.97333333 7.14666667,3.5 C7.78666667,3.02666667 8.54,2.66 9.42,2.4 C10.3,2.14 11.26,2.00666667 12.3133333,2.00666667 C13.3933333,2.00666667 14.3733333,2.15333333 15.2533333,2.45333333 C16.1333333,2.75333333 16.8866667,3.16666667 17.5133333,3.70666667 C18.14,4.24 18.62,4.87333333 18.96,5.61333333 C19.3,6.34666667 19.4666667,7.15333333 19.4666667,8.02666667 L15.4533333,8.02666667 C15.4533333,7.62 15.3866667,7.24 15.26,6.89333333 C15.1333333,6.54 14.9333333,6.24 14.6666667,5.99333333 C14.4,5.74666667 14.0666667,5.54666667 13.6666667,5.41333333 C13.2666667,5.27333333 12.7933333,5.20666667 12.2466667,5.20666667 C11.72,5.20666667 11.2666667,5.26666667 10.8733333,5.38 C10.4866667,5.49333333 10.1666667,5.65333333 9.91333333,5.86 C9.66,6.06666667 9.46666667,6.30666667 9.34,6.58 C9.21333333,6.85333333 9.14666667,7.15333333 9.14666667,7.46 C9.14666667,8.1 9.47333333,8.64 10.1266667,9.07333333 C10.6266667,9.4 11.1466667,9.71333333 12,10.0066667 L5.85333333,10.0066667 C5.78666667,9.89333333 5.71333333,9.78666667 5.64666667,9.66666667 L5.64666667,9.66666667 Z M24,14.0066667 L24,11.34 L0,11.34 L0,14.0066667 L12.8333333,14.0066667 C13.0733333,14.1 13.3666667,14.1933333 13.5666667,14.28 C14.06,14.5 14.4466667,14.7333333 14.7266667,14.96 C15.0066667,15.1933333 15.1933333,15.4466667 15.2933333,15.7133333 C15.3933333,15.9866667 15.44,16.2933333 15.44,16.6266667 C15.44,16.94 15.38,17.2333333 15.26,17.5 C15.14,17.7733333 14.9533333,18.0066667 14.7066667,18.2 C14.46,18.3933333 14.14,18.5466667 13.76,18.66 C13.3733333,18.7733333 12.9266667,18.8266667 12.4066667,18.8266667 C11.8266667,18.8266667 11.3,18.7666667 10.8266667,18.6533333 C10.3533333,18.54 9.95333333,18.3533333 9.62,18.1 C9.28666667,17.8466667 9.02666667,17.5133333 8.84,17.1066667 C8.65333333,16.7 8.5,16.0866667 8.5,15.5 L4.53333333,15.5 C4.53333333,16.2333333 4.64,17.0066667 4.84666667,17.6066667 C5.05333333,18.2066667 5.34666667,18.7466667 5.71333333,19.22 C6.08,19.6933333 6.52,20.1 7.02,20.4466667 C7.52,20.7933333 8.06,21.0866667 8.64666667,21.3133333 C9.23333333,21.5466667 9.84,21.72 10.4866667,21.8266667 C11.1266667,21.94 11.7733333,21.9933333 12.4133333,21.9933333 C13.48,21.9933333 14.4533333,21.8733333 15.32,21.6266667 C16.1866667,21.38 16.9333333,21.0266667 17.5466667,20.5733333 C18.16,20.1133333 18.6333333,19.5533333 18.9733333,18.88 C19.3133333,18.2066667 19.4733333,17.4466667 19.4733333,16.5933333 C19.4733333,15.7933333 19.3333333,15.0733333 19.06,14.44 C18.9933333,14.2866667 18.92,14.14 18.8333333,13.9933333 L24,13.9933333 L24,14.0066667 Z"/>
</svg>
